var o, p;
o = [
	OSCData.prNew,  Set.prNew,  Array.prNew(4),  Array.prNew(176),  
	Array.prNew(4),  Array.prNew(10),  NetAddr.prNew,  Array.prNew(4),  
	Array.prNew(10),  NetAddr.prNew,  Array.prNew(4),  Array.prNew(10),  
	NetAddr.prNew,  Array.prNew(4),  Array.prNew(10),  NetAddr.prNew,  
	Array.prNew(4),  Array.prNew(10),  NetAddr.prNew,  Array.prNew(4),  
	Array.prNew(10),  NetAddr.prNew,  Array.prNew(4),  Array.prNew(10),  
	NetAddr.prNew,  Array.prNew(4),  Array.prNew(10),  NetAddr.prNew,  
	Array.prNew(4),  Array.prNew(10),  NetAddr.prNew,  Array.prNew(4),  
	Array.prNew(10),  NetAddr.prNew,  Array.prNew(4),  Array.prNew(10),  
	NetAddr.prNew,  Array.prNew(4),  Array.prNew(10),  NetAddr.prNew,  
	Array.prNew(4),  Array.prNew(10),  NetAddr.prNew,  Array.prNew(4),  
	Array.prNew(10),  NetAddr.prNew,  Array.prNew(4),  Array.prNew(10),  
	NetAddr.prNew,  Array.prNew(4),  Array.prNew(10),  NetAddr.prNew,  
	Array.prNew(4),  Array.prNew(10),  NetAddr.prNew,  Array.prNew(4),  
	Array.prNew(10),  NetAddr.prNew,  Array.prNew(4),  Array.prNew(10),  
	NetAddr.prNew,  Array.prNew(4),  Array.prNew(10),  NetAddr.prNew,  
	Array.prNew(4),  Array.prNew(8),  NetAddr.prNew,  Array.prNew(4),  
	Array.prNew(2),  NetAddr.prNew,  Array.prNew(4),  Array.prNew(10),  
	NetAddr.prNew,  Array.prNew(4),  Array.prNew(10),  NetAddr.prNew,  
	Array.prNew(4),  Array.prNew(4),  NetAddr.prNew,  Array.prNew(4),  
	Array.prNew(2),  NetAddr.prNew,  Array.prNew(4),  Array.prNew(2),  
	NetAddr.prNew,  Array.prNew(4),  Array.prNew(2),  NetAddr.prNew,  
	Array.prNew(4),  Array.prNew(2),  NetAddr.prNew,  Array.prNew(4),  
	Array.prNew(2),  NetAddr.prNew,  Array.prNew(4),  Array.prNew(2),  
	NetAddr.prNew,  Array.prNew(4),  Array.prNew(2),  NetAddr.prNew,  
	Array.prNew(4),  Array.prNew(2),  NetAddr.prNew,  Array.prNew(4),  
	Array.prNew(2),  NetAddr.prNew,  Array.prNew(4),  Array.prNew(2),  
	NetAddr.prNew,  Array.prNew(4),  Array.prNew(2),  NetAddr.prNew,  
	Array.prNew(4),  Array.prNew(2),  NetAddr.prNew,  Array.prNew(4),  
	Array.prNew(2),  NetAddr.prNew,  Array.prNew(4),  Array.prNew(2),  
	NetAddr.prNew,  Array.prNew(4),  Array.prNew(2),  NetAddr.prNew,  
	Array.prNew(4),  Array.prNew(2),  NetAddr.prNew,  Array.prNew(4),  
	Array.prNew(2),  NetAddr.prNew,  Array.prNew(4),  Array.prNew(2),  
	NetAddr.prNew,  Array.prNew(4),  Array.prNew(2),  NetAddr.prNew,  
	Array.prNew(4),  Array.prNew(2),  NetAddr.prNew,  Array.prNew(4),  
	Array.prNew(2),  NetAddr.prNew,  Array.prNew(4),  Array.prNew(2),  
	NetAddr.prNew,  Array.prNew(4),  Array.prNew(2),  NetAddr.prNew,  
	Array.prNew(4),  Array.prNew(2),  NetAddr.prNew,  Array.prNew(4),  
	Array.prNew(2),  NetAddr.prNew,  Array.prNew(4),  Array.prNew(2),  
	NetAddr.prNew,  Array.prNew(4),  Array.prNew(2),  NetAddr.prNew,  
	Array.prNew(4),  Array.prNew(2),  NetAddr.prNew,  Array.prNew(4),  
	Array.prNew(2),  NetAddr.prNew,  Array.prNew(4),  Array.prNew(2),  
	NetAddr.prNew,  Array.prNew(4),  Array.prNew(2),  NetAddr.prNew,  
	Array.prNew(4),  Array.prNew(2),  NetAddr.prNew,  Array.prNew(4),  
	Array.prNew(2),  NetAddr.prNew,  Array.prNew(4),  Array.prNew(2),  
	NetAddr.prNew,  Array.prNew(4),  Array.prNew(2),  NetAddr.prNew,  
	Array.prNew(4),  Array.prNew(2),  NetAddr.prNew,  Array.prNew(4),  
	Array.prNew(2),  NetAddr.prNew,  Array.prNew(4),  Array.prNew(2),  
	NetAddr.prNew,  Array.prNew(4),  Array.prNew(2),  NetAddr.prNew,  
	Array.prNew(4),  Array.prNew(2),  NetAddr.prNew,  Array.prNew(4),  
	Array.prNew(2),  NetAddr.prNew,  Array.prNew(4),  Array.prNew(2),  
	NetAddr.prNew,  Array.prNew(4),  Array.prNew(2),  NetAddr.prNew,  
	Array.prNew(4),  Array.prNew(2),  NetAddr.prNew,  Array.prNew(4),  
	Array.prNew(2),  NetAddr.prNew,  Array.prNew(4),  Array.prNew(2),  
	NetAddr.prNew,  Array.prNew(4),  Array.prNew(2),  NetAddr.prNew,  
	Array.prNew(4),  Array.prNew(2),  NetAddr.prNew,  Array.prNew(4),  
	Array.prNew(2),  NetAddr.prNew,  Array.prNew(4),  Array.prNew(2),  
	NetAddr.prNew,  Array.prNew(4),  Array.prNew(2),  NetAddr.prNew,  
	Array.prNew(4),  Array.prNew(2),  NetAddr.prNew,  Array.prNew(4),  
	Array.prNew(2),  NetAddr.prNew,  Array.prNew(4),  Array.prNew(2),  
	NetAddr.prNew,  Array.prNew(4),  Array.prNew(2),  NetAddr.prNew,  
	Array.prNew(4),  Array.prNew(2),  NetAddr.prNew,  Array.prNew(4),  
	Array.prNew(2),  NetAddr.prNew,  Array.prNew(4),  Array.prNew(2),  
	NetAddr.prNew,  Array.prNew(4),  Array.prNew(2),  NetAddr.prNew,  
	Array.prNew(4),  Array.prNew(2),  NetAddr.prNew,  Array.prNew(4),  
	Array.prNew(2),  NetAddr.prNew,  Array.prNew(4),  Array.prNew(2),  
	NetAddr.prNew,  Array.prNew(4),  Array.prNew(2),  NetAddr.prNew,  
	Array.prNew(4),  Array.prNew(2),  NetAddr.prNew,  Array.prNew(4),  
	Array.prNew(2),  NetAddr.prNew,  Array.prNew(4),  Array.prNew(2),  
	NetAddr.prNew,  Array.prNew(4),  Array.prNew(2),  NetAddr.prNew,  
	Array.prNew(4),  Array.prNew(2),  NetAddr.prNew,  Array.prNew(4),  
	Array.prNew(2),  NetAddr.prNew,  Array.prNew(4),  Array.prNew(2),  
	NetAddr.prNew,  Array.prNew(4),  Array.prNew(2),  NetAddr.prNew,  
	Array.prNew(4),  Array.prNew(2),  NetAddr.prNew,  Array.prNew(4),  
	Array.prNew(2),  NetAddr.prNew,  Array.prNew(4),  Array.prNew(2),  
	NetAddr.prNew,  Array.prNew(4),  Array.prNew(2),  NetAddr.prNew,  
	Array.prNew(4),  Array.prNew(2),  NetAddr.prNew,  Array.prNew(4),  
	Array.prNew(2),  NetAddr.prNew,  Array.prNew(4),  Array.prNew(2),  
	NetAddr.prNew,  Array.prNew(4),  Array.prNew(2),  NetAddr.prNew,  
	Array.prNew(4),  Array.prNew(2),  NetAddr.prNew,  Array.prNew(4),  
	Array.prNew(2),  NetAddr.prNew,  Array.prNew(4),  Array.prNew(2),  
	NetAddr.prNew,  Array.prNew(4),  Array.prNew(2),  NetAddr.prNew,  
	Array.prNew(4),  Array.prNew(2),  NetAddr.prNew,  Array.prNew(4),  
	Array.prNew(2),  NetAddr.prNew,  Array.prNew(4),  Array.prNew(2),  
	NetAddr.prNew,  Array.prNew(4),  Array.prNew(2),  NetAddr.prNew,  
	Array.prNew(4),  Array.prNew(2),  NetAddr.prNew,  Array.prNew(4),  
	Array.prNew(2),  NetAddr.prNew,  Array.prNew(4),  Array.prNew(2),  
	NetAddr.prNew,  Array.prNew(4),  Array.prNew(2),  NetAddr.prNew,  
	Array.prNew(4),  Array.prNew(2),  NetAddr.prNew,  Array.prNew(4),  
	Array.prNew(2),  NetAddr.prNew,  Array.prNew(4),  Array.prNew(2),  
	NetAddr.prNew,  Array.prNew(4),  Array.prNew(2),  NetAddr.prNew,  
	Array.prNew(4),  Array.prNew(2),  NetAddr.prNew,  Array.prNew(4),  
	Array.prNew(2),  NetAddr.prNew,  Array.prNew(4),  Array.prNew(2),  
	NetAddr.prNew,  Array.prNew(4),  Array.prNew(2),  NetAddr.prNew,  
	Array.prNew(4),  Array.prNew(2),  NetAddr.prNew,  Array.prNew(4),  
	Array.prNew(2),  NetAddr.prNew,  Array.prNew(4),  Array.prNew(2),  
	NetAddr.prNew,  Array.prNew(4),  Array.prNew(2),  NetAddr.prNew,  
	Array.prNew(4),  Array.prNew(2),  NetAddr.prNew,  Array.prNew(4),  
	Array.prNew(2),  NetAddr.prNew,  Array.prNew(4),  Array.prNew(2),  
	NetAddr.prNew,  Array.prNew(4),  Array.prNew(2),  NetAddr.prNew,  
	Array.prNew(4),  Array.prNew(2),  NetAddr.prNew,  Array.prNew(4),  
	Array.prNew(8),  NetAddr.prNew,  Array.prNew(4),  Array.prNew(2),  
	NetAddr.prNew,  Array.prNew(4),  Array.prNew(2),  NetAddr.prNew,  
	Array.prNew(4),  Array.prNew(2),  NetAddr.prNew,  Array.prNew(4),  
	Array.prNew(2),  NetAddr.prNew,  Array.prNew(4),  Array.prNew(3),  
	NetAddr.prNew,  Array.prNew(4),  Array.prNew(3),  NetAddr.prNew,  
	Array.prNew(4),  Array.prNew(3),  NetAddr.prNew,  Array.prNew(4),  
	Array.prNew(3),  NetAddr.prNew,  Array.prNew(4),  Array.prNew(3),  
	NetAddr.prNew,  Array.prNew(4),  Array.prNew(3),  NetAddr.prNew,  
	Array.prNew(4),  Array.prNew(3),  NetAddr.prNew,  Array.prNew(4),  
	Array.prNew(3),  NetAddr.prNew,  Array.prNew(4),  Array.prNew(3),  
	NetAddr.prNew,  Array.prNew(4),  Array.prNew(3),  NetAddr.prNew,  
	Array.prNew(4),  Array.prNew(3),  NetAddr.prNew,  Array.prNew(4),  
	Array.prNew(3),  NetAddr.prNew,  Array.prNew(4),  Array.prNew(3),  
	NetAddr.prNew,  Array.prNew(4),  Array.prNew(3),  NetAddr.prNew,  
	Array.prNew(4),  Array.prNew(10),  NetAddr.prNew,  Array.prNew(4),  
	Array.prNew(3),  NetAddr.prNew,  Array.prNew(4),  Array.prNew(3),  
	NetAddr.prNew,  Array.prNew(4),  Array.prNew(3),  NetAddr.prNew,  
	Array.prNew(4),  Array.prNew(3),  NetAddr.prNew,  Array.prNew(4),  
	Array.prNew(3),  NetAddr.prNew,  Array.prNew(4),  Array.prNew(2),  
	NetAddr.prNew,  Array.prNew(4),  Array.prNew(2),  NetAddr.prNew,  
	Array.prNew(4),  Array.prNew(2),  NetAddr.prNew,  Array.prNew(4),  
	Array.prNew(2),  NetAddr.prNew,  Array.prNew(4),  Array.prNew(10),  
	NetAddr.prNew,  Array.prNew(4),  Array.prNew(10),  NetAddr.prNew,  
	Array.prNew(4),  Array.prNew(10),  NetAddr.prNew,  Array.prNew(4),  
	Array.prNew(10),  NetAddr.prNew,  Array.prNew(4),  Array.prNew(10),  
	NetAddr.prNew,  Array.prNew(4),  Array.prNew(10),  NetAddr.prNew,  
	Array.prNew(4),  Array.prNew(10),  NetAddr.prNew,  Array.prNew(4),  
	Array.prNew(10),  NetAddr.prNew,  Array.prNew(4),  Array.prNew(10),  
	NetAddr.prNew,  Array.prNew(4),  Array.prNew(10),  NetAddr.prNew,  
	Array.prNew(4),  Array.prNew(10),  NetAddr.prNew,  Array.prNew(4),  
	Array.prNew(10),  NetAddr.prNew,  Array.prNew(4),  Array.prNew(10),  
	NetAddr.prNew,  Array.prNew(4),  Array.prNew(10),  NetAddr.prNew,  
	"220327_204326",  "220327_204326",  "OSCData220327_204326_11"
];
p = [
	// OSCData
	0, [ messages: o[1],  data: o[3],  
		sessionStart: o[532],  recordingStart: o[533],  
		recordingStop: nil,  name: o[534] ],  
	// Set
	1, [ array: o[2],  size: 0 ],  
	// Array
	2, [ nil,  nil,  nil,  nil ],  
	// Array
	3, [ o[4],  o[7],  o[10],  o[13],  
		o[16],  o[19],  o[22],  o[25],  
		o[28],  o[31],  o[34],  o[37],  
		o[40],  o[43],  o[46],  o[49],  
		o[52],  o[55],  o[58],  o[61],  
		o[64],  o[67],  o[70],  o[73],  
		o[76],  o[79],  o[82],  o[85],  
		o[88],  o[91],  o[94],  o[97],  
		o[100],  o[103],  o[106],  o[109],  
		o[112],  o[115],  o[118],  o[121],  
		o[124],  o[127],  o[130],  o[133],  
		o[136],  o[139],  o[142],  o[145],  
		o[148],  o[151],  o[154],  o[157],  
		o[160],  o[163],  o[166],  o[169],  
		o[172],  o[175],  o[178],  o[181],  
		o[184],  o[187],  o[190],  o[193],  
		o[196],  o[199],  o[202],  o[205],  
		o[208],  o[211],  o[214],  o[217],  
		o[220],  o[223],  o[226],  o[229],  
		o[232],  o[235],  o[238],  o[241],  
		o[244],  o[247],  o[250],  o[253],  
		o[256],  o[259],  o[262],  o[265],  
		o[268],  o[271],  o[274],  o[277],  
		o[280],  o[283],  o[286],  o[289],  
		o[292],  o[295],  o[298],  o[301],  
		o[304],  o[307],  o[310],  o[313],  
		o[316],  o[319],  o[322],  o[325],  
		o[328],  o[331],  o[334],  o[337],  
		o[340],  o[343],  o[346],  o[349],  
		o[352],  o[355],  o[358],  o[361],  
		o[364],  o[367],  o[370],  o[373],  
		o[376],  o[379],  o[382],  o[385],  
		o[388],  o[391],  o[394],  o[397],  
		o[400],  o[403],  o[406],  o[409],  
		o[412],  o[415],  o[418],  o[421],  
		o[424],  o[427],  o[430],  o[433],  
		o[436],  o[439],  o[442],  o[445],  
		o[448],  o[451],  o[454],  o[457],  
		o[460],  o[463],  o[466],  o[469],  
		o[472],  o[475],  o[478],  o[481],  
		o[484],  o[487],  o[490],  o[493],  
		o[496],  o[499],  o[502],  o[505],  
		o[508],  o[511],  o[514],  o[517],  
		o[520],  o[523],  o[526],  o[529] ],  
	// Array
	4, [ o[5],  69515.1319815,  o[6],  57120 ],  
	// Array
	5, [ '/status.reply',  1,  0,  0,  
		2,  116,  0.036797560751438,  0.13359375298023,  
		48000.0,  47999.048560922 ],  
	// NetAddr
	6, [ addr: 2130706433,  port: 57110,  
		hostname: nil,  socket: nil ],  
	// Array
	7, [ o[8],  69515.835991917,  o[9],  57120 ],  
	// Array
	8, [ '/status.reply',  1,  0,  0,  
		2,  116,  0.044289216399193,  0.14843437075615,  
		48000.0,  47999.043965939 ],  
	// NetAddr
	9, [ addr: 2130706433,  port: 57110,  
		hostname: nil,  socket: nil ],  
	// Array
	10, [ o[11],  69516.540011417,  o[12],  57120 ],  
	// Array
	11, [ '/status.reply',  1,  0,  0,  
		2,  116,  0.04202814027667,  0.16875000298023,  
		48000.0,  47999.042099986 ],  
	// NetAddr
	12, [ addr: 2130706433,  port: 57110,  
		hostname: nil,  socket: nil ],  
	// Array
	13, [ o[14],  69517.244183625,  o[15],  57120 ],  
	// Array
	14, [ '/status.reply',  1,  0,  0,  
		2,  116,  0.052654545754194,  0.21483750641346,  
		48000.0,  47999.038348967 ],  
	// NetAddr
	15, [ addr: 2130706433,  port: 57110,  
		hostname: nil,  socket: nil ],  
	// Array
	16, [ o[17],  69517.95870975,  o[18],  57120 ],  
	// Array
	17, [ '/status.reply',  1,  0,  0,  
		2,  116,  0.04278826713562,  0.21483750641346,  
		48000.0,  47999.03538248 ],  
	// NetAddr
	18, [ addr: 2130706433,  port: 57110,  
		hostname: nil,  socket: nil ],  
	// Array
	19, [ o[20],  69518.652074459,  o[21],  57120 ],  
	// Array
	20, [ '/status.reply',  1,  0,  0,  
		2,  116,  0.039654806256294,  0.135150000453,  
		48000.0,  47999.034138666 ],  
	// NetAddr
	21, [ addr: 2130706433,  port: 57110,  
		hostname: nil,  socket: nil ],  
	// Array
	22, [ o[23],  69519.356044209,  o[24],  57120 ],  
	// Array
	23, [ '/status.reply',  1,  0,  0,  
		2,  116,  0.043439995497465,  0.135150000453,  
		48000.0,  47999.031749525 ],  
	// NetAddr
	24, [ addr: 2130706433,  port: 57110,  
		hostname: nil,  socket: nil ],  
	// Array
	25, [ o[26],  69520.060082375,  o[27],  57120 ],  
	// Array
	26, [ '/status.reply',  1,  0,  0,  
		2,  116,  0.043037712574005,  0.140625,  
		48000.0,  47999.035870327 ],  
	// NetAddr
	27, [ addr: 2130706433,  port: 57110,  
		hostname: nil,  socket: nil ],  
	// Array
	28, [ o[29],  69520.764173125,  o[30],  57120 ],  
	// Array
	29, [ '/status.reply',  1,  0,  0,  
		2,  116,  0.040245812386274,  0.140625,  
		48000.0,  47999.028296023 ],  
	// NetAddr
	30, [ addr: 2130706433,  port: 57110,  
		hostname: nil,  socket: nil ],  
	// Array
	31, [ o[32],  69521.457448375,  o[33],  57120 ],  
	// Array
	32, [ '/status.reply',  1,  0,  0,  
		2,  116,  0.040311045944691,  0.13593749701977,  
		48000.0,  47999.027291281 ],  
	// NetAddr
	33, [ addr: 2130706433,  port: 57110,  
		hostname: nil,  socket: nil ],  
	// Array
	34, [ o[35],  69522.161422417,  o[36],  57120 ],  
	// Array
	35, [ '/status.reply',  1,  0,  0,  
		2,  116,  0.034289360046387,  0.13593749701977,  
		48000.0,  47999.02492961 ],  
	// NetAddr
	36, [ addr: 2130706433,  port: 57110,  
		hostname: nil,  socket: nil ],  
	// Array
	37, [ o[38],  69522.865477334,  o[39],  57120 ],  
	// Array
	38, [ '/status.reply',  1,  0,  0,  
		2,  116,  0.041050098836422,  0.14453437924385,  
		48000.0,  47999.023597001 ],  
	// NetAddr
	39, [ addr: 2130706433,  port: 57110,  
		hostname: nil,  socket: nil ],  
	// Array
	40, [ o[41],  69523.558829792,  o[42],  57120 ],  
	// Array
	41, [ '/status.reply',  1,  0,  0,  
		2,  116,  0.066979877650738,  0.14843437075615,  
		48000.0,  47999.02269819 ],  
	// NetAddr
	42, [ addr: 2130706433,  port: 57110,  
		hostname: nil,  socket: nil ],  
	// Array
	43, [ o[44],  69524.262922417,  o[45],  57120 ],  
	// Array
	44, [ '/status.reply',  1,  0,  0,  
		2,  116,  0.048543661832809,  0.15859687328339,  
		48000.0,  47999.024458783 ],  
	// NetAddr
	45, [ addr: 2130706433,  port: 57110,  
		hostname: nil,  socket: nil ],  
	// Array
	46, [ o[47],  69524.977507792,  o[48],  57120 ],  
	// Array
	47, [ '/status.reply',  1,  0,  0,  
		2,  116,  0.042093865573406,  0.15859687328339,  
		48000.0,  47999.022577381 ],  
	// NetAddr
	48, [ addr: 2130706433,  port: 57110,  
		hostname: nil,  socket: nil ],  
	// Array
	49, [ o[50],  69525.681613042,  o[51],  57120 ],  
	// Array
	50, [ '/status.reply',  1,  0,  0,  
		2,  116,  0.03822248801589,  0.16132499277592,  
		48000.0,  47999.021597957 ],  
	// NetAddr
	51, [ addr: 2130706433,  port: 57110,  
		hostname: nil,  socket: nil ],  
	// Array
	52, [ o[53],  69526.385528959,  o[54],  57120 ],  
	// Array
	53, [ '/status.reply',  1,  0,  0,  
		2,  116,  0.043058391660452,  0.13437187671661,  
		48000.0,  47999.020672576 ],  
	// NetAddr
	54, [ addr: 2130706433,  port: 57110,  
		hostname: nil,  socket: nil ],  
	// Array
	55, [ o[56],  69527.089627417,  o[57],  57120 ],  
	// Array
	56, [ '/status.reply',  1,  0,  0,  
		2,  116,  0.038307547569275,  0.25742813944817,  
		48000.0,  47999.019808847 ],  
	// NetAddr
	57, [ addr: 2130706433,  port: 57110,  
		hostname: nil,  socket: nil ],  
	// Array
	58, [ o[59],  69527.782897875,  o[60],  57120 ],  
	// Array
	59, [ '/status.reply',  1,  0,  0,  
		2,  116,  0.043438050895929,  0.12773437798023,  
		48000.0,  47999.02016251 ],  
	// NetAddr
	60, [ addr: 2130706433,  port: 57110,  
		hostname: nil,  socket: nil ],  
	// Array
	61, [ o[62],  69528.486920709,  o[63],  57120 ],  
	// Array
	62, [ '/status.reply',  1,  0,  0,  
		2,  116,  0.040938254445791,  0.13124999403954,  
		48000.0,  47999.020524902 ],  
	// NetAddr
	63, [ addr: 2130706433,  port: 57110,  
		hostname: nil,  socket: nil ],  
	// Array
	64, [ o[65],  69528.968272375,  o[66],  57120 ],  
	// Array
	65, [ '/n_end',  1,  -1,  -1,  
		-1,  1,  -1,  -1 ],  
	// NetAddr
	66, [ addr: 2130706433,  port: 57110,  
		hostname: nil,  socket: nil ],  
	// Array
	67, [ o[68],  69528.968337625,  o[69],  57120 ],  
	// Array
	68, [ '/done',  '/quit' ],  
	// NetAddr
	69, [ addr: 2130706433,  port: 57110,  
		hostname: nil,  socket: nil ],  
	// Array
	70, [ o[71],  69532.910770417,  o[72],  57120 ],  
	// Array
	71, [ '/status.reply',  1,  0,  0,  
		1,  10,  0.077420718967915,  0.53984999656677,  
		48000.0,  48000.000002874 ],  
	// NetAddr
	72, [ addr: 2130706433,  port: 57110,  
		hostname: nil,  socket: nil ],  
	// Array
	73, [ o[74],  69533.603816334,  o[75],  57120 ],  
	// Array
	74, [ '/status.reply',  1,  0,  0,  
		1,  10,  0.039803974330425,  0.53984999656677,  
		48000.0,  47999.851523037 ],  
	// NetAddr
	75, [ addr: 2130706433,  port: 57110,  
		hostname: nil,  socket: nil ],  
	// Array
	76, [ o[77],  69533.61459175,  o[78],  57120 ],  
	// Array
	77, [ '/done',  '/notify',  0,  1 ],  
	// NetAddr
	78, [ addr: 2130706433,  port: 57110,  
		hostname: nil,  socket: nil ],  
	// Array
	79, [ o[80],  69533.635861792,  o[81],  57120 ],  
	// Array
	80, [ '/done',  '/d_recv' ],  
	// NetAddr
	81, [ addr: 2130706433,  port: 57110,  
		hostname: nil,  socket: nil ],  
	// Array
	82, [ o[83],  69533.675069542,  o[84],  57120 ],  
	// Array
	83, [ '/done',  '/d_recv' ],  
	// NetAddr
	84, [ addr: 2130706433,  port: 57110,  
		hostname: nil,  socket: nil ],  
	// Array
	85, [ o[86],  69533.675123709,  o[87],  57120 ],  
	// Array
	86, [ '/done',  '/d_recv' ],  
	// NetAddr
	87, [ addr: 2130706433,  port: 57110,  
		hostname: nil,  socket: nil ],  
	// Array
	88, [ o[89],  69533.675144375,  o[90],  57120 ],  
	// Array
	89, [ '/done',  '/d_recv' ],  
	// NetAddr
	90, [ addr: 2130706433,  port: 57110,  
		hostname: nil,  socket: nil ],  
	// Array
	91, [ o[92],  69533.67516275,  o[93],  57120 ],  
	// Array
	92, [ '/done',  '/d_recv' ],  
	// NetAddr
	93, [ addr: 2130706433,  port: 57110,  
		hostname: nil,  socket: nil ],  
	// Array
	94, [ o[95],  69533.675181417,  o[96],  57120 ],  
	// Array
	95, [ '/done',  '/d_recv' ],  
	// NetAddr
	96, [ addr: 2130706433,  port: 57110,  
		hostname: nil,  socket: nil ],  
	// Array
	97, [ o[98],  69533.675200084,  o[99],  57120 ],  
	// Array
	98, [ '/done',  '/d_recv' ],  
	// NetAddr
	99, [ addr: 2130706433,  port: 57110,  
		hostname: nil,  socket: nil ],  
	// Array
	100, [ o[101],  69533.675217334,  o[102],  57120 ],  
	// Array
	101, [ '/done',  '/d_recv' ],  
	// NetAddr
	102, [ addr: 2130706433,  port: 57110,  
		hostname: nil,  socket: nil ],  
	// Array
	103, [ o[104],  69533.675237375,  o[105],  57120 ],  
	// Array
	104, [ '/done',  '/d_recv' ],  
	// NetAddr
	105, [ addr: 2130706433,  port: 57110,  
		hostname: nil,  socket: nil ],  
	// Array
	106, [ o[107],  69533.675256042,  o[108],  57120 ],  
	// Array
	107, [ '/done',  '/d_recv' ],  
	// NetAddr
	108, [ addr: 2130706433,  port: 57110,  
		hostname: nil,  socket: nil ],  
	// Array
	109, [ o[110],  69533.675276,  o[111],  57120 ],  
	// Array
	110, [ '/done',  '/d_recv' ],  
	// NetAddr
	111, [ addr: 2130706433,  port: 57110,  
		hostname: nil,  socket: nil ],  
	// Array
	112, [ o[113],  69533.675297334,  o[114],  57120 ],  
	// Array
	113, [ '/done',  '/d_recv' ],  
	// NetAddr
	114, [ addr: 2130706433,  port: 57110,  
		hostname: nil,  socket: nil ],  
	// Array
	115, [ o[116],  69533.675316,  o[117],  57120 ],  
	// Array
	116, [ '/done',  '/d_recv' ],  
	// NetAddr
	117, [ addr: 2130706433,  port: 57110,  
		hostname: nil,  socket: nil ],  
	// Array
	118, [ o[119],  69533.675333375,  o[120],  57120 ],  
	// Array
	119, [ '/done',  '/d_recv' ],  
	// NetAddr
	120, [ addr: 2130706433,  port: 57110,  
		hostname: nil,  socket: nil ],  
	// Array
	121, [ o[122],  69533.675350667,  o[123],  57120 ],  
	// Array
	122, [ '/done',  '/d_recv' ],  
	// NetAddr
	123, [ addr: 2130706433,  port: 57110,  
		hostname: nil,  socket: nil ],  
	// Array
	124, [ o[125],  69533.675370667,  o[126],  57120 ],  
	// Array
	125, [ '/done',  '/d_recv' ],  
	// NetAddr
	126, [ addr: 2130706433,  port: 57110,  
		hostname: nil,  socket: nil ],  
	// Array
	127, [ o[128],  69533.675388084,  o[129],  57120 ],  
	// Array
	128, [ '/done',  '/d_recv' ],  
	// NetAddr
	129, [ addr: 2130706433,  port: 57110,  
		hostname: nil,  socket: nil ],  
	// Array
	130, [ o[131],  69533.675409334,  o[132],  57120 ],  
	// Array
	131, [ '/done',  '/d_recv' ],  
	// NetAddr
	132, [ addr: 2130706433,  port: 57110,  
		hostname: nil,  socket: nil ],  
	// Array
	133, [ o[134],  69533.675429334,  o[135],  57120 ],  
	// Array
	134, [ '/done',  '/d_recv' ],  
	// NetAddr
	135, [ addr: 2130706433,  port: 57110,  
		hostname: nil,  socket: nil ],  
	// Array
	136, [ o[137],  69533.675446667,  o[138],  57120 ],  
	// Array
	137, [ '/done',  '/d_recv' ],  
	// NetAddr
	138, [ addr: 2130706433,  port: 57110,  
		hostname: nil,  socket: nil ],  
	// Array
	139, [ o[140],  69533.675464,  o[141],  57120 ],  
	// Array
	140, [ '/done',  '/d_recv' ],  
	// NetAddr
	141, [ addr: 2130706433,  port: 57110,  
		hostname: nil,  socket: nil ],  
	// Array
	142, [ o[143],  69533.675484042,  o[144],  57120 ],  
	// Array
	143, [ '/done',  '/d_recv' ],  
	// NetAddr
	144, [ addr: 2130706433,  port: 57110,  
		hostname: nil,  socket: nil ],  
	// Array
	145, [ o[146],  69533.675501334,  o[147],  57120 ],  
	// Array
	146, [ '/done',  '/d_recv' ],  
	// NetAddr
	147, [ addr: 2130706433,  port: 57110,  
		hostname: nil,  socket: nil ],  
	// Array
	148, [ o[149],  69533.67551875,  o[150],  57120 ],  
	// Array
	149, [ '/done',  '/d_recv' ],  
	// NetAddr
	150, [ addr: 2130706433,  port: 57110,  
		hostname: nil,  socket: nil ],  
	// Array
	151, [ o[152],  69533.675537334,  o[153],  57120 ],  
	// Array
	152, [ '/done',  '/d_recv' ],  
	// NetAddr
	153, [ addr: 2130706433,  port: 57110,  
		hostname: nil,  socket: nil ],  
	// Array
	154, [ o[155],  69533.675554709,  o[156],  57120 ],  
	// Array
	155, [ '/done',  '/d_recv' ],  
	// NetAddr
	156, [ addr: 2130706433,  port: 57110,  
		hostname: nil,  socket: nil ],  
	// Array
	157, [ o[158],  69533.675573375,  o[159],  57120 ],  
	// Array
	158, [ '/done',  '/d_recv' ],  
	// NetAddr
	159, [ addr: 2130706433,  port: 57110,  
		hostname: nil,  socket: nil ],  
	// Array
	160, [ o[161],  69533.675592042,  o[162],  57120 ],  
	// Array
	161, [ '/done',  '/d_recv' ],  
	// NetAddr
	162, [ addr: 2130706433,  port: 57110,  
		hostname: nil,  socket: nil ],  
	// Array
	163, [ o[164],  69533.675612,  o[165],  57120 ],  
	// Array
	164, [ '/done',  '/d_recv' ],  
	// NetAddr
	165, [ addr: 2130706433,  port: 57110,  
		hostname: nil,  socket: nil ],  
	// Array
	166, [ o[167],  69533.675632,  o[168],  57120 ],  
	// Array
	167, [ '/done',  '/d_recv' ],  
	// NetAddr
	168, [ addr: 2130706433,  port: 57110,  
		hostname: nil,  socket: nil ],  
	// Array
	169, [ o[170],  69533.675653375,  o[171],  57120 ],  
	// Array
	170, [ '/done',  '/d_recv' ],  
	// NetAddr
	171, [ addr: 2130706433,  port: 57110,  
		hostname: nil,  socket: nil ],  
	// Array
	172, [ o[173],  69533.675673292,  o[174],  57120 ],  
	// Array
	173, [ '/done',  '/d_recv' ],  
	// NetAddr
	174, [ addr: 2130706433,  port: 57110,  
		hostname: nil,  socket: nil ],  
	// Array
	175, [ o[176],  69533.675693375,  o[177],  57120 ],  
	// Array
	176, [ '/done',  '/d_recv' ],  
	// NetAddr
	177, [ addr: 2130706433,  port: 57110,  
		hostname: nil,  socket: nil ],  
	// Array
	178, [ o[179],  69533.675710667,  o[180],  57120 ],  
	// Array
	179, [ '/done',  '/d_recv' ],  
	// NetAddr
	180, [ addr: 2130706433,  port: 57110,  
		hostname: nil,  socket: nil ],  
	// Array
	181, [ o[182],  69533.675730625,  o[183],  57120 ],  
	// Array
	182, [ '/done',  '/d_recv' ],  
	// NetAddr
	183, [ addr: 2130706433,  port: 57110,  
		hostname: nil,  socket: nil ],  
	// Array
	184, [ o[185],  69533.675748,  o[186],  57120 ],  
	// Array
	185, [ '/done',  '/d_recv' ],  
	// NetAddr
	186, [ addr: 2130706433,  port: 57110,  
		hostname: nil,  socket: nil ],  
	// Array
	187, [ o[188],  69533.675769375,  o[189],  57120 ],  
	// Array
	188, [ '/done',  '/d_recv' ],  
	// NetAddr
	189, [ addr: 2130706433,  port: 57110,  
		hostname: nil,  socket: nil ],  
	// Array
	190, [ o[191],  69533.675786709,  o[192],  57120 ],  
	// Array
	191, [ '/done',  '/d_recv' ],  
	// NetAddr
	192, [ addr: 2130706433,  port: 57110,  
		hostname: nil,  socket: nil ],  
	// Array
	193, [ o[194],  69533.675806709,  o[195],  57120 ],  
	// Array
	194, [ '/done',  '/d_recv' ],  
	// NetAddr
	195, [ addr: 2130706433,  port: 57110,  
		hostname: nil,  socket: nil ],  
	// Array
	196, [ o[197],  69533.675825375,  o[198],  57120 ],  
	// Array
	197, [ '/done',  '/d_recv' ],  
	// NetAddr
	198, [ addr: 2130706433,  port: 57110,  
		hostname: nil,  socket: nil ],  
	// Array
	199, [ o[200],  69533.675842709,  o[201],  57120 ],  
	// Array
	200, [ '/done',  '/d_recv' ],  
	// NetAddr
	201, [ addr: 2130706433,  port: 57110,  
		hostname: nil,  socket: nil ],  
	// Array
	202, [ o[203],  69533.675862709,  o[204],  57120 ],  
	// Array
	203, [ '/done',  '/d_recv' ],  
	// NetAddr
	204, [ addr: 2130706433,  port: 57110,  
		hostname: nil,  socket: nil ],  
	// Array
	205, [ o[206],  69533.675881375,  o[207],  57120 ],  
	// Array
	206, [ '/done',  '/d_recv' ],  
	// NetAddr
	207, [ addr: 2130706433,  port: 57110,  
		hostname: nil,  socket: nil ],  
	// Array
	208, [ o[209],  69533.675898667,  o[210],  57120 ],  
	// Array
	209, [ '/done',  '/d_recv' ],  
	// NetAddr
	210, [ addr: 2130706433,  port: 57110,  
		hostname: nil,  socket: nil ],  
	// Array
	211, [ o[212],  69533.675916042,  o[213],  57120 ],  
	// Array
	212, [ '/done',  '/d_recv' ],  
	// NetAddr
	213, [ addr: 2130706433,  port: 57110,  
		hostname: nil,  socket: nil ],  
	// Array
	214, [ o[215],  69533.675933375,  o[216],  57120 ],  
	// Array
	215, [ '/done',  '/d_recv' ],  
	// NetAddr
	216, [ addr: 2130706433,  port: 57110,  
		hostname: nil,  socket: nil ],  
	// Array
	217, [ o[218],  69533.675953334,  o[219],  57120 ],  
	// Array
	218, [ '/done',  '/d_recv' ],  
	// NetAddr
	219, [ addr: 2130706433,  port: 57110,  
		hostname: nil,  socket: nil ],  
	// Array
	220, [ o[221],  69533.675973334,  o[222],  57120 ],  
	// Array
	221, [ '/done',  '/d_recv' ],  
	// NetAddr
	222, [ addr: 2130706433,  port: 57110,  
		hostname: nil,  socket: nil ],  
	// Array
	223, [ o[224],  69533.675990709,  o[225],  57120 ],  
	// Array
	224, [ '/done',  '/d_recv' ],  
	// NetAddr
	225, [ addr: 2130706433,  port: 57110,  
		hostname: nil,  socket: nil ],  
	// Array
	226, [ o[227],  69533.676010709,  o[228],  57120 ],  
	// Array
	227, [ '/done',  '/d_recv' ],  
	// NetAddr
	228, [ addr: 2130706433,  port: 57110,  
		hostname: nil,  socket: nil ],  
	// Array
	229, [ o[230],  69533.676032,  o[231],  57120 ],  
	// Array
	230, [ '/done',  '/d_recv' ],  
	// NetAddr
	231, [ addr: 2130706433,  port: 57110,  
		hostname: nil,  socket: nil ],  
	// Array
	232, [ o[233],  69533.676049375,  o[234],  57120 ],  
	// Array
	233, [ '/done',  '/d_recv' ],  
	// NetAddr
	234, [ addr: 2130706433,  port: 57110,  
		hostname: nil,  socket: nil ],  
	// Array
	235, [ o[236],  69533.676069375,  o[237],  57120 ],  
	// Array
	236, [ '/done',  '/d_recv' ],  
	// NetAddr
	237, [ addr: 2130706433,  port: 57110,  
		hostname: nil,  socket: nil ],  
	// Array
	238, [ o[239],  69533.676086709,  o[240],  57120 ],  
	// Array
	239, [ '/done',  '/d_recv' ],  
	// NetAddr
	240, [ addr: 2130706433,  port: 57110,  
		hostname: nil,  socket: nil ],  
	// Array
	241, [ o[242],  69533.676108,  o[243],  57120 ],  
	// Array
	242, [ '/done',  '/d_recv' ],  
	// NetAddr
	243, [ addr: 2130706433,  port: 57110,  
		hostname: nil,  socket: nil ],  
	// Array
	244, [ o[245],  69533.676128042,  o[246],  57120 ],  
	// Array
	245, [ '/done',  '/d_recv' ],  
	// NetAddr
	246, [ addr: 2130706433,  port: 57110,  
		hostname: nil,  socket: nil ],  
	// Array
	247, [ o[248],  69533.676148,  o[249],  57120 ],  
	// Array
	248, [ '/done',  '/d_recv' ],  
	// NetAddr
	249, [ addr: 2130706433,  port: 57110,  
		hostname: nil,  socket: nil ],  
	// Array
	250, [ o[251],  69533.676166834,  o[252],  57120 ],  
	// Array
	251, [ '/done',  '/d_recv' ],  
	// NetAddr
	252, [ addr: 2130706433,  port: 57110,  
		hostname: nil,  socket: nil ],  
	// Array
	253, [ o[254],  69533.676184042,  o[255],  57120 ],  
	// Array
	254, [ '/done',  '/d_recv' ],  
	// NetAddr
	255, [ addr: 2130706433,  port: 57110,  
		hostname: nil,  socket: nil ],  
	// Array
	256, [ o[257],  69533.676201584,  o[258],  57120 ],  
	// Array
	257, [ '/done',  '/d_recv' ],  
	// NetAddr
	258, [ addr: 2130706433,  port: 57110,  
		hostname: nil,  socket: nil ],  
	// Array
	259, [ o[260],  69533.676221084,  o[261],  57120 ],  
	// Array
	260, [ '/done',  '/d_recv' ],  
	// NetAddr
	261, [ addr: 2130706433,  port: 57110,  
		hostname: nil,  socket: nil ],  
	// Array
	262, [ o[263],  69533.676238709,  o[264],  57120 ],  
	// Array
	263, [ '/done',  '/d_recv' ],  
	// NetAddr
	264, [ addr: 2130706433,  port: 57110,  
		hostname: nil,  socket: nil ],  
	// Array
	265, [ o[266],  69533.67625875,  o[267],  57120 ],  
	// Array
	266, [ '/done',  '/d_recv' ],  
	// NetAddr
	267, [ addr: 2130706433,  port: 57110,  
		hostname: nil,  socket: nil ],  
	// Array
	268, [ o[269],  69533.676277334,  o[270],  57120 ],  
	// Array
	269, [ '/done',  '/d_recv' ],  
	// NetAddr
	270, [ addr: 2130706433,  port: 57110,  
		hostname: nil,  socket: nil ],  
	// Array
	271, [ o[272],  69533.676294709,  o[273],  57120 ],  
	// Array
	272, [ '/done',  '/d_recv' ],  
	// NetAddr
	273, [ addr: 2130706433,  port: 57110,  
		hostname: nil,  socket: nil ],  
	// Array
	274, [ o[275],  69533.676314667,  o[276],  57120 ],  
	// Array
	275, [ '/done',  '/d_recv' ],  
	// NetAddr
	276, [ addr: 2130706433,  port: 57110,  
		hostname: nil,  socket: nil ],  
	// Array
	277, [ o[278],  69533.676334667,  o[279],  57120 ],  
	// Array
	278, [ '/done',  '/d_recv' ],  
	// NetAddr
	279, [ addr: 2130706433,  port: 57110,  
		hostname: nil,  socket: nil ],  
	// Array
	280, [ o[281],  69533.676354709,  o[282],  57120 ],  
	// Array
	281, [ '/done',  '/d_recv' ],  
	// NetAddr
	282, [ addr: 2130706433,  port: 57110,  
		hostname: nil,  socket: nil ],  
	// Array
	283, [ o[284],  69533.676374667,  o[285],  57120 ],  
	// Array
	284, [ '/done',  '/d_recv' ],  
	// NetAddr
	285, [ addr: 2130706433,  port: 57110,  
		hostname: nil,  socket: nil ],  
	// Array
	286, [ o[287],  69533.676396,  o[288],  57120 ],  
	// Array
	287, [ '/done',  '/d_recv' ],  
	// NetAddr
	288, [ addr: 2130706433,  port: 57110,  
		hostname: nil,  socket: nil ],  
	// Array
	289, [ o[290],  69533.676416,  o[291],  57120 ],  
	// Array
	290, [ '/done',  '/d_recv' ],  
	// NetAddr
	291, [ addr: 2130706433,  port: 57110,  
		hostname: nil,  socket: nil ],  
	// Array
	292, [ o[293],  69533.676437375,  o[294],  57120 ],  
	// Array
	293, [ '/done',  '/d_recv' ],  
	// NetAddr
	294, [ addr: 2130706433,  port: 57110,  
		hostname: nil,  socket: nil ],  
	// Array
	295, [ o[296],  69533.678532375,  o[297],  57120 ],  
	// Array
	296, [ '/done',  '/d_recv' ],  
	// NetAddr
	297, [ addr: 2130706433,  port: 57110,  
		hostname: nil,  socket: nil ],  
	// Array
	298, [ o[299],  69533.678552959,  o[300],  57120 ],  
	// Array
	299, [ '/done',  '/d_recv' ],  
	// NetAddr
	300, [ addr: 2130706433,  port: 57110,  
		hostname: nil,  socket: nil ],  
	// Array
	301, [ o[302],  69533.678572125,  o[303],  57120 ],  
	// Array
	302, [ '/done',  '/d_recv' ],  
	// NetAddr
	303, [ addr: 2130706433,  port: 57110,  
		hostname: nil,  socket: nil ],  
	// Array
	304, [ o[305],  69533.678581584,  o[306],  57120 ],  
	// Array
	305, [ '/done',  '/d_recv' ],  
	// NetAddr
	306, [ addr: 2130706433,  port: 57110,  
		hostname: nil,  socket: nil ],  
	// Array
	307, [ o[308],  69533.678599792,  o[309],  57120 ],  
	// Array
	308, [ '/done',  '/d_recv' ],  
	// NetAddr
	309, [ addr: 2130706433,  port: 57110,  
		hostname: nil,  socket: nil ],  
	// Array
	310, [ o[311],  69533.678618625,  o[312],  57120 ],  
	// Array
	311, [ '/done',  '/d_recv' ],  
	// NetAddr
	312, [ addr: 2130706433,  port: 57110,  
		hostname: nil,  socket: nil ],  
	// Array
	313, [ o[314],  69533.678637375,  o[315],  57120 ],  
	// Array
	314, [ '/done',  '/d_recv' ],  
	// NetAddr
	315, [ addr: 2130706433,  port: 57110,  
		hostname: nil,  socket: nil ],  
	// Array
	316, [ o[317],  69533.678644334,  o[318],  57120 ],  
	// Array
	317, [ '/done',  '/d_recv' ],  
	// NetAddr
	318, [ addr: 2130706433,  port: 57110,  
		hostname: nil,  socket: nil ],  
	// Array
	319, [ o[320],  69533.678662417,  o[321],  57120 ],  
	// Array
	320, [ '/done',  '/d_recv' ],  
	// NetAddr
	321, [ addr: 2130706433,  port: 57110,  
		hostname: nil,  socket: nil ],  
	// Array
	322, [ o[323],  69533.678669459,  o[324],  57120 ],  
	// Array
	323, [ '/done',  '/d_recv' ],  
	// NetAddr
	324, [ addr: 2130706433,  port: 57110,  
		hostname: nil,  socket: nil ],  
	// Array
	325, [ o[326],  69533.678690375,  o[327],  57120 ],  
	// Array
	326, [ '/done',  '/d_recv' ],  
	// NetAddr
	327, [ addr: 2130706433,  port: 57110,  
		hostname: nil,  socket: nil ],  
	// Array
	328, [ o[329],  69533.678697375,  o[330],  57120 ],  
	// Array
	329, [ '/done',  '/d_recv' ],  
	// NetAddr
	330, [ addr: 2130706433,  port: 57110,  
		hostname: nil,  socket: nil ],  
	// Array
	331, [ o[332],  69533.678716542,  o[333],  57120 ],  
	// Array
	332, [ '/done',  '/d_recv' ],  
	// NetAddr
	333, [ addr: 2130706433,  port: 57110,  
		hostname: nil,  socket: nil ],  
	// Array
	334, [ o[335],  69533.678733459,  o[336],  57120 ],  
	// Array
	335, [ '/done',  '/d_recv' ],  
	// NetAddr
	336, [ addr: 2130706433,  port: 57110,  
		hostname: nil,  socket: nil ],  
	// Array
	337, [ o[338],  69533.678752084,  o[339],  57120 ],  
	// Array
	338, [ '/done',  '/d_recv' ],  
	// NetAddr
	339, [ addr: 2130706433,  port: 57110,  
		hostname: nil,  socket: nil ],  
	// Array
	340, [ o[341],  69533.678769375,  o[342],  57120 ],  
	// Array
	341, [ '/done',  '/d_recv' ],  
	// NetAddr
	342, [ addr: 2130706433,  port: 57110,  
		hostname: nil,  socket: nil ],  
	// Array
	343, [ o[344],  69533.678786667,  o[345],  57120 ],  
	// Array
	344, [ '/done',  '/d_recv' ],  
	// NetAddr
	345, [ addr: 2130706433,  port: 57110,  
		hostname: nil,  socket: nil ],  
	// Array
	346, [ o[347],  69533.678805334,  o[348],  57120 ],  
	// Array
	347, [ '/done',  '/d_recv' ],  
	// NetAddr
	348, [ addr: 2130706433,  port: 57110,  
		hostname: nil,  socket: nil ],  
	// Array
	349, [ o[350],  69533.678824,  o[351],  57120 ],  
	// Array
	350, [ '/done',  '/d_recv' ],  
	// NetAddr
	351, [ addr: 2130706433,  port: 57110,  
		hostname: nil,  socket: nil ],  
	// Array
	352, [ o[353],  69533.678841292,  o[354],  57120 ],  
	// Array
	353, [ '/done',  '/d_recv' ],  
	// NetAddr
	354, [ addr: 2130706433,  port: 57110,  
		hostname: nil,  socket: nil ],  
	// Array
	355, [ o[356],  69533.678858709,  o[357],  57120 ],  
	// Array
	356, [ '/done',  '/d_recv' ],  
	// NetAddr
	357, [ addr: 2130706433,  port: 57110,  
		hostname: nil,  socket: nil ],  
	// Array
	358, [ o[359],  69533.68915825,  o[360],  57120 ],  
	// Array
	359, [ '/done',  '/d_recv' ],  
	// NetAddr
	360, [ addr: 2130706433,  port: 57110,  
		hostname: nil,  socket: nil ],  
	// Array
	361, [ o[362],  69533.6891725,  o[363],  57120 ],  
	// Array
	362, [ '/done',  '/d_recv' ],  
	// NetAddr
	363, [ addr: 2130706433,  port: 57110,  
		hostname: nil,  socket: nil ],  
	// Array
	364, [ o[365],  69533.689179334,  o[366],  57120 ],  
	// Array
	365, [ '/done',  '/d_recv' ],  
	// NetAddr
	366, [ addr: 2130706433,  port: 57110,  
		hostname: nil,  socket: nil ],  
	// Array
	367, [ o[368],  69533.689202792,  o[369],  57120 ],  
	// Array
	368, [ '/done',  '/d_recv' ],  
	// NetAddr
	369, [ addr: 2130706433,  port: 57110,  
		hostname: nil,  socket: nil ],  
	// Array
	370, [ o[371],  69533.689211209,  o[372],  57120 ],  
	// Array
	371, [ '/done',  '/d_recv' ],  
	// NetAddr
	372, [ addr: 2130706433,  port: 57110,  
		hostname: nil,  socket: nil ],  
	// Array
	373, [ o[374],  69533.689229625,  o[375],  57120 ],  
	// Array
	374, [ '/done',  '/d_recv' ],  
	// NetAddr
	375, [ addr: 2130706433,  port: 57110,  
		hostname: nil,  socket: nil ],  
	// Array
	376, [ o[377],  69533.68924925,  o[378],  57120 ],  
	// Array
	377, [ '/done',  '/d_recv' ],  
	// NetAddr
	378, [ addr: 2130706433,  port: 57110,  
		hostname: nil,  socket: nil ],  
	// Array
	379, [ o[380],  69533.689258417,  o[381],  57120 ],  
	// Array
	380, [ '/done',  '/d_recv' ],  
	// NetAddr
	381, [ addr: 2130706433,  port: 57110,  
		hostname: nil,  socket: nil ],  
	// Array
	382, [ o[383],  69533.689278,  o[384],  57120 ],  
	// Array
	383, [ '/done',  '/d_recv' ],  
	// NetAddr
	384, [ addr: 2130706433,  port: 57110,  
		hostname: nil,  socket: nil ],  
	// Array
	385, [ o[386],  69533.689297542,  o[387],  57120 ],  
	// Array
	386, [ '/done',  '/d_recv' ],  
	// NetAddr
	387, [ addr: 2130706433,  port: 57110,  
		hostname: nil,  socket: nil ],  
	// Array
	388, [ o[389],  69533.689316167,  o[390],  57120 ],  
	// Array
	389, [ '/done',  '/d_recv' ],  
	// NetAddr
	390, [ addr: 2130706433,  port: 57110,  
		hostname: nil,  socket: nil ],  
	// Array
	391, [ o[392],  69533.689334792,  o[393],  57120 ],  
	// Array
	392, [ '/done',  '/d_recv' ],  
	// NetAddr
	393, [ addr: 2130706433,  port: 57110,  
		hostname: nil,  socket: nil ],  
	// Array
	394, [ o[395],  69533.6893535,  o[396],  57120 ],  
	// Array
	395, [ '/synced',  1012 ],  
	// NetAddr
	396, [ addr: 2130706433,  port: 57110,  
		hostname: nil,  socket: nil ],  
	// Array
	397, [ o[398],  69533.689416625,  o[399],  57120 ],  
	// Array
	398, [ '/done',  '/d_recv' ],  
	// NetAddr
	399, [ addr: 2130706433,  port: 57110,  
		hostname: nil,  socket: nil ],  
	// Array
	400, [ o[401],  69533.68960575,  o[402],  57120 ],  
	// Array
	401, [ '/synced',  1013 ],  
	// NetAddr
	402, [ addr: 2130706433,  port: 57110,  
		hostname: nil,  socket: nil ],  
	// Array
	403, [ o[404],  69533.699958959,  o[405],  57120 ],  
	// Array
	404, [ '/n_go',  1,  0,  -1,  
		-1,  1,  -1,  -1 ],  
	// NetAddr
	405, [ addr: 2130706433,  port: 57110,  
		hostname: nil,  socket: nil ],  
	// Array
	406, [ o[407],  69533.710575834,  o[408],  57120 ],  
	// Array
	407, [ '/synced',  1014 ],  
	// NetAddr
	408, [ addr: 2130706433,  port: 57110,  
		hostname: nil,  socket: nil ],  
	// Array
	409, [ o[410],  69533.731833667,  o[411],  57120 ],  
	// Array
	410, [ '/synced',  1015 ],  
	// NetAddr
	411, [ addr: 2130706433,  port: 57110,  
		hostname: nil,  socket: nil ],  
	// Array
	412, [ o[413],  69533.76381325,  o[414],  57120 ],  
	// Array
	413, [ '/synced',  1016 ],  
	// NetAddr
	414, [ addr: 2130706433,  port: 57110,  
		hostname: nil,  socket: nil ],  
	// Array
	415, [ o[416],  69533.891875667,  o[417],  57120 ],  
	// Array
	416, [ '/synced',  1017 ],  
	// NetAddr
	417, [ addr: 2130706433,  port: 57110,  
		hostname: nil,  socket: nil ],  
	// Array
	418, [ o[419],  69534.082056417,  o[420],  57120 ],  
	// Array
	419, [ '/done',  '/b_allocRead',  0 ],  
	// NetAddr
	420, [ addr: 2130706433,  port: 57110,  
		hostname: nil,  socket: nil ],  
	// Array
	421, [ o[422],  69534.427927917,  o[423],  57120 ],  
	// Array
	422, [ '/done',  '/b_allocRead',  1 ],  
	// NetAddr
	423, [ addr: 2130706433,  port: 57110,  
		hostname: nil,  socket: nil ],  
	// Array
	424, [ o[425],  69534.42826225,  o[426],  57120 ],  
	// Array
	425, [ '/done',  '/b_allocRead',  2 ],  
	// NetAddr
	426, [ addr: 2130706433,  port: 57110,  
		hostname: nil,  socket: nil ],  
	// Array
	427, [ o[428],  69534.428359042,  o[429],  57120 ],  
	// Array
	428, [ '/done',  '/b_allocRead',  3 ],  
	// NetAddr
	429, [ addr: 2130706433,  port: 57110,  
		hostname: nil,  socket: nil ],  
	// Array
	430, [ o[431],  69534.428427667,  o[432],  57120 ],  
	// Array
	431, [ '/done',  '/b_allocRead',  4 ],  
	// NetAddr
	432, [ addr: 2130706433,  port: 57110,  
		hostname: nil,  socket: nil ],  
	// Array
	433, [ o[434],  69534.428500584,  o[435],  57120 ],  
	// Array
	434, [ '/done',  '/b_allocRead',  5 ],  
	// NetAddr
	435, [ addr: 2130706433,  port: 57110,  
		hostname: nil,  socket: nil ],  
	// Array
	436, [ o[437],  69534.428594042,  o[438],  57120 ],  
	// Array
	437, [ '/done',  '/b_allocRead',  6 ],  
	// NetAddr
	438, [ addr: 2130706433,  port: 57110,  
		hostname: nil,  socket: nil ],  
	// Array
	439, [ o[440],  69534.428663,  o[441],  57120 ],  
	// Array
	440, [ '/done',  '/b_allocRead',  7 ],  
	// NetAddr
	441, [ addr: 2130706433,  port: 57110,  
		hostname: nil,  socket: nil ],  
	// Array
	442, [ o[443],  69534.428751292,  o[444],  57120 ],  
	// Array
	443, [ '/done',  '/b_allocRead',  8 ],  
	// NetAddr
	444, [ addr: 2130706433,  port: 57110,  
		hostname: nil,  socket: nil ],  
	// Array
	445, [ o[446],  69534.428839167,  o[447],  57120 ],  
	// Array
	446, [ '/done',  '/b_allocRead',  9 ],  
	// NetAddr
	447, [ addr: 2130706433,  port: 57110,  
		hostname: nil,  socket: nil ],  
	// Array
	448, [ o[449],  69534.428896417,  o[450],  57120 ],  
	// Array
	449, [ '/done',  '/b_allocRead',  10 ],  
	// NetAddr
	450, [ addr: 2130706433,  port: 57110,  
		hostname: nil,  socket: nil ],  
	// Array
	451, [ o[452],  69534.428971167,  o[453],  57120 ],  
	// Array
	452, [ '/done',  '/b_allocRead',  11 ],  
	// NetAddr
	453, [ addr: 2130706433,  port: 57110,  
		hostname: nil,  socket: nil ],  
	// Array
	454, [ o[455],  69534.42906725,  o[456],  57120 ],  
	// Array
	455, [ '/done',  '/b_allocRead',  12 ],  
	// NetAddr
	456, [ addr: 2130706433,  port: 57110,  
		hostname: nil,  socket: nil ],  
	// Array
	457, [ o[458],  69534.429157917,  o[459],  57120 ],  
	// Array
	458, [ '/done',  '/b_allocRead',  13 ],  
	// NetAddr
	459, [ addr: 2130706433,  port: 57110,  
		hostname: nil,  socket: nil ],  
	// Array
	460, [ o[461],  69534.429245834,  o[462],  57120 ],  
	// Array
	461, [ '/status.reply',  1,  0,  0,  
		2,  116,  0.076719172298908,  1.4542968273163,  
		48000.0,  47999.708143564 ],  
	// NetAddr
	462, [ addr: 2130706433,  port: 57110,  
		hostname: nil,  socket: nil ],  
	// Array
	463, [ o[464],  69534.429554834,  o[465],  57120 ],  
	// Array
	464, [ '/done',  '/b_allocRead',  14 ],  
	// NetAddr
	465, [ addr: 2130706433,  port: 57110,  
		hostname: nil,  socket: nil ],  
	// Array
	466, [ o[467],  69534.429624834,  o[468],  57120 ],  
	// Array
	467, [ '/done',  '/b_allocRead',  15 ],  
	// NetAddr
	468, [ addr: 2130706433,  port: 57110,  
		hostname: nil,  socket: nil ],  
	// Array
	469, [ o[470],  69534.4307095,  o[471],  57120 ],  
	// Array
	470, [ '/done',  '/b_allocRead',  16 ],  
	// NetAddr
	471, [ addr: 2130706433,  port: 57110,  
		hostname: nil,  socket: nil ],  
	// Array
	472, [ o[473],  69534.430768334,  o[474],  57120 ],  
	// Array
	473, [ '/done',  '/b_allocRead',  17 ],  
	// NetAddr
	474, [ addr: 2130706433,  port: 57110,  
		hostname: nil,  socket: nil ],  
	// Array
	475, [ o[476],  69534.435928542,  o[477],  57120 ],  
	// Array
	476, [ '/done',  '/b_allocRead',  18 ],  
	// NetAddr
	477, [ addr: 2130706433,  port: 57110,  
		hostname: nil,  socket: nil ],  
	// Array
	478, [ o[479],  69534.436035417,  o[480],  57120 ],  
	// Array
	479, [ '/synced',  1018 ],  
	// NetAddr
	480, [ addr: 2130706433,  port: 57110,  
		hostname: nil,  socket: nil ],  
	// Array
	481, [ o[482],  69534.457165292,  o[483],  57120 ],  
	// Array
	482, [ '/synced',  1019 ],  
	// NetAddr
	483, [ addr: 2130706433,  port: 57110,  
		hostname: nil,  socket: nil ],  
	// Array
	484, [ o[485],  69534.47859025,  o[486],  57120 ],  
	// Array
	485, [ '/synced',  1020 ],  
	// NetAddr
	486, [ addr: 2130706433,  port: 57110,  
		hostname: nil,  socket: nil ],  
	// Array
	487, [ o[488],  69534.499893959,  o[489],  57120 ],  
	// Array
	488, [ '/synced',  1021 ],  
	// NetAddr
	489, [ addr: 2130706433,  port: 57110,  
		hostname: nil,  socket: nil ],  
	// Array
	490, [ o[491],  69535.011872625,  o[492],  57120 ],  
	// Array
	491, [ '/status.reply',  1,  0,  0,  
		2,  116,  0.042129941284657,  0.12734062969685,  
		48000.0,  47999.635204655 ],  
	// NetAddr
	492, [ addr: 2130706433,  port: 57110,  
		hostname: nil,  socket: nil ],  
	// Array
	493, [ o[494],  69535.71590375,  o[495],  57120 ],  
	// Array
	494, [ '/status.reply',  1,  0,  0,  
		2,  116,  0.041071735322475,  0.151959374547,  
		48000.0,  47999.557596625 ],  
	// NetAddr
	495, [ addr: 2130706433,  port: 57110,  
		hostname: nil,  socket: nil ],  
	// Array
	496, [ o[497],  69536.409219709,  o[498],  57120 ],  
	// Array
	497, [ '/status.reply',  1,  0,  0,  
		2,  116,  0.044708870351315,  0.16445624828339,  
		48000.0,  47999.492276201 ],  
	// NetAddr
	498, [ addr: 2130706433,  port: 57110,  
		hostname: nil,  socket: nil ],  
	// Array
	499, [ o[500],  69537.113241292,  o[501],  57120 ],  
	// Array
	500, [ '/status.reply',  1,  0,  0,  
		2,  116,  0.039311099797487,  0.16445624828339,  
		48000.0,  47999.4338151 ],  
	// NetAddr
	501, [ addr: 2130706433,  port: 57110,  
		hostname: nil,  socket: nil ],  
	// Array
	502, [ o[503],  69537.817266084,  o[504],  57120 ],  
	// Array
	503, [ '/status.reply',  1,  0,  0,  
		2,  116,  0.052443858236074,  0.13554374873638,  
		48000.0,  47999.381518003 ],  
	// NetAddr
	504, [ addr: 2130706433,  port: 57110,  
		hostname: nil,  socket: nil ],  
	// Array
	505, [ o[506],  69538.510638667,  o[507],  57120 ],  
	// Array
	506, [ '/status.reply',  1,  0,  0,  
		2,  116,  0.041784044355154,  0.13633124530315,  
		48000.0,  47999.337299181 ],  
	// NetAddr
	507, [ addr: 2130706433,  port: 57110,  
		hostname: nil,  socket: nil ],  
	// Array
	508, [ o[509],  69539.214584292,  o[510],  57120 ],  
	// Array
	509, [ '/status.reply',  1,  0,  0,  
		2,  116,  0.045048262923956,  0.15078750252724,  
		48000.0,  47999.297345356 ],  
	// NetAddr
	510, [ addr: 2130706433,  port: 57110,  
		hostname: nil,  socket: nil ],  
	// Array
	511, [ o[512],  69539.92933875,  o[513],  57120 ],  
	// Array
	512, [ '/status.reply',  1,  0,  0,  
		2,  116,  0.044827967882156,  0.15078750252724,  
		48000.0,  47999.26224301 ],  
	// NetAddr
	513, [ addr: 2130706433,  port: 57110,  
		hostname: nil,  socket: nil ],  
	// Array
	514, [ o[515],  69540.633325625,  o[516],  57120 ],  
	// Array
	515, [ '/status.reply',  1,  0,  0,  
		2,  116,  0.037543993443251,  0.11601562798023,  
		48000.0,  47999.231460526 ],  
	// NetAddr
	516, [ addr: 2130706433,  port: 57110,  
		hostname: nil,  socket: nil ],  
	// Array
	517, [ o[518],  69541.337315709,  o[519],  57120 ],  
	// Array
	518, [ '/status.reply',  1,  0,  0,  
		2,  116,  0.040711112320423,  0.11601562798023,  
		48000.0,  47999.206019564 ],  
	// NetAddr
	519, [ addr: 2130706433,  port: 57110,  
		hostname: nil,  socket: nil ],  
	// Array
	520, [ o[521],  69542.030693875,  o[522],  57120 ],  
	// Array
	521, [ '/status.reply',  1,  0,  0,  
		2,  116,  0.04513343796134,  0.13633124530315,  
		48000.0,  47999.182517179 ],  
	// NetAddr
	522, [ addr: 2130706433,  port: 57110,  
		hostname: nil,  socket: nil ],  
	// Array
	523, [ o[524],  69542.734684959,  o[525],  57120 ],  
	// Array
	524, [ '/status.reply',  1,  0,  0,  
		2,  116,  0.038104340434074,  0.13633124530315,  
		48000.0,  47999.161014519 ],  
	// NetAddr
	525, [ addr: 2130706433,  port: 57110,  
		hostname: nil,  socket: nil ],  
	// Array
	526, [ o[527],  69543.438826125,  o[528],  57120 ],  
	// Array
	527, [ '/status.reply',  1,  0,  0,  
		2,  116,  0.042242050170898,  0.13007812201977,  
		48000.0,  47999.142749572 ],  
	// NetAddr
	528, [ addr: 2130706433,  port: 57110,  
		hostname: nil,  socket: nil ],  
	// Array
	529, [ o[530],  69544.142726334,  o[531],  57120 ],  
	// Array
	530, [ '/status.reply',  1,  0,  0,  
		2,  116,  0.037018794566393,  0.13007812201977,  
		48000.0,  47999.127174772 ],  
	// NetAddr
	531, [ addr: 2130706433,  port: 57110,  
		hostname: nil,  socket: nil ]
];
prUnarchive(o,p);
